X:1
T:Miss Walsh's Fancy
S:Philippe Varlet  irtrad-l 2001-5-21
B:Kerr's Merry Melodies Bk.2, p27
Z:Nigel Gatherer
M:6/8
K:A
EAA cAA|eAA cAA|EAA cAA|BAB cAA|EAA cAA|eAA cAA|
aga ecA|BAB cAA::aga ecA|cAc efg|aga ecA|BAB cAA|
aga ecA|cAc efg|aga ecA|BAB cAA::EAA cee|dff cee|
EAA cee|BAB cAA|EAA cee|dff cee|aga ecA|BAB cAA:|]
